assets/copy3.svg

<svg version="1.1" viewBox="0 0 14 14" xml:space="preserve" xmlns="http://www.w3.org/2000/svg"><g transform="translate(-102.73 -146.28)"><g transform="translate(102.73 144.28)" fill="none"><g id="Copy icon" stroke="#00c5ff"><path d="m0.5 6.5c0-0.55228 0.44772-1 1-1h8c0.5523 0 1 0.44772 1 1v8c0 0.5523-0.4477 1-1 1h-8c-0.55228 0-1-0.4477-1-1z"/><path d="m3.5 5.5v-2c0-0.55228 0.44772-1 1-1h8c0.5523 0 1 0.44772 1 1v8c0 0.5523-0.4477 1-1 1h-2"/></g></g></g></svg>

<svg width="14" height="16" viewBox="0 0 14 16" fill="none" xmlns="http://www.w3.org/2000/svg">
<path d="M0.5 6.5C0.5 5.94772 0.947715 5.5 1.5 5.5H9.5C10.0523 5.5 10.5 5.94772 10.5 6.5V14.5C10.5 15.0523 10.0523 15.5 9.5 15.5H1.5C0.947716 15.5 0.5 15.0523 0.5 14.5V6.5Z" stroke="#00C5FF"/>
<path d="M3.5 5.5V3.5C3.5 2.94772 3.94772 2.5 4.5 2.5H12.5C13.0523 2.5 13.5 2.94772 13.5 3.5V11.5C13.5 12.0523 13.0523 12.5 12.5 12.5H10.5" stroke="#00C5FF"/>
</svg>
